components/icon/svg/24/av_skip-backward.svg

<?xml version="1.0" encoding="UTF-8"?>
<svg width="24px" height="24px" viewBox="0 0 24 24" version="1.1" xmlns="http://www.w3.org/2000/svg" xmlns:xlink="http://www.w3.org/1999/xlink">
    <!-- Generator: Sketch 64 (93537) - https://sketch.com -->
    <title>ic-db_av_skip-backward_24</title>
    <desc>Created with Sketch.</desc>
    <g id="Symbols:Icon" stroke="none" stroke-width="1" fill="none" fill-rule="evenodd">
        <g id="24dp-Icon/AV/Skip-Backward" fill="#282D37">
            <path d="M16.9564,5 C18.0604,5 19,5.9161 19,7.0436 L19,7.0436 L19,16.9564 C19,18.1309 18.0134,19 16.9799,19 C16.557,19 16.1577,18.8591 15.8054,18.6242 L15.8054,18.6242 L9.3523,13.6678 C8.8121,13.2919 8.5067,12.6577 8.5067,12 C8.5067,11.3423 8.8121,10.7081 9.3523,10.3322 L9.3523,10.3322 L15.8054,5.3758 C16.1577,5.1409 16.557,5 16.9564,5 Z M17,7 L10.5,12 L17,17 L17,7 Z M6.9966,17.0034 L6.9966,6.9732 C6.9966,6.4329 6.5503,5.9866 6.0101,5.9866 C5.4698,5.9866 5,6.4329 5,6.9732 L5,17.0034 C5,17.5436 5.4463,17.9899 6.0101,17.9899 C6.5503,17.9899 6.9966,17.5436 6.9966,17.0034 Z" id="🎨-Color"></path>
        </g>
    </g>
</svg>

<svg width="24" height="24" xmlns="http://www.w3.org/2000/svg"><path d="M16.956 5A2.06 2.06 0 0119 7.044v9.912C19 18.131 18.013 19 16.98 19c-.423 0-.822-.14-1.175-.376l-6.953-4.956c-.54-.376-.845-1.01-.845-1.668 0-.658.305-1.292.845-1.668l6.953-4.956c.353-.235.752-.376 1.151-.376zM17 7l-7 5 7 5V7zM6.997 17.003V6.973a.993.993 0 00-.987-.986c-.54 0-1.01.446-1.01.986v10.03c0 .54.446.987 1.01.987.54 0 .987-.446.987-.987z" fill="#282D37" fill-rule="evenodd"/></svg>
